modules/framework7-icons/icons/chat.svg

<?xml version="1.0" encoding="UTF-8"?>
<svg width="55px" height="50px" viewBox="0 0 55 50" version="1.1" xmlns="http://www.w3.org/2000/svg" xmlns:xlink="http://www.w3.org/1999/xlink">
    <!-- Generator: Sketch 40.1 (33804) - http://www.bohemiancoding.com/sketch -->
    <title>chat</title>
    <desc>Created with Sketch.</desc>
    <defs></defs>
    <g id="Page-1" stroke="none" stroke-width="1" fill="none" fill-rule="evenodd">
        <g id="chat" fill="#000000">
            <path d="M53,21.8846714 C53,11.0159112 41.6707206,2 27.5,2 C13.3292794,2 2,11.0159112 2,21.8846714 C2,28.6927825 6.46559858,34.9812244 13.7863738,38.6409138 C15.9900488,39.7425411 15.7380838,42.9499233 14.3339371,45.819887 C14.0739479,46.3512842 13.7753932,46.8853078 13.3982316,47.5110206 C15.0413673,47.0036361 16.7895939,46.3003624 18.1640545,45.5251957 C18.6673661,45.2413386 19.1577985,44.9008015 19.6660985,44.4917247 C19.9734584,44.2443633 20.272414,43.9850795 20.6436914,43.6485554 C20.756574,43.5462391 20.8740833,43.4387613 21.0990454,43.2327831 C21.2856183,43.0623198 21.4164872,42.9442814 21.545072,42.8314102 C22.600774,41.9047188 23.2453964,41.5112268 24.3241665,41.6161057 C25.3717381,41.7179514 26.4316451,41.7693428 27.5,41.7693428 C41.6707206,41.7693428 53,32.7534317 53,21.8846714 Z M24.1306375,43.6067203 C23.257495,43.5218327 21.7630927,45.7915607 19.1465334,47.2672448 C15.8753416,49.1121279 11.3904783,50.2370074 10.3825211,49.957608 C9.29720959,49.6567663 11.351232,47.3654257 12.5374286,44.9409346 C13.4976609,42.9782965 13.6671519,40.8172969 12.8920832,40.4298364 C5.14774156,36.5584043 0,29.6999445 0,21.8846714 C0,9.79810114 12.3121694,0 27.5,0 C42.6878306,0 55,9.79810114 55,21.8846714 C55,33.9712417 42.6878306,43.7693428 27.5,43.7693428 C26.3593259,43.7693428 25.2348725,43.7140749 24.1306375,43.6067203 Z" id="Oval-27"></path>
        </g>
    </g>
</svg>

<svg width="55" height="50" xmlns="http://www.w3.org/2000/svg"><path d="M53 21.885C53 11.015 41.67 2 27.5 2S2 11.016 2 21.885C2 28.693 6.466 34.98 13.786 38.64c2.204 1.102 1.952 4.309.548 7.179a22.04 22.04 0 0 1-.936 1.691c1.643-.507 3.392-1.21 4.766-1.986.503-.284.994-.624 1.502-1.033.307-.248.606-.507.978-.843l.455-.416c.187-.17.317-.289.446-.402 1.056-.926 1.7-1.32 2.78-1.215 1.047.102 2.107.153 3.175.153 14.17 0 25.5-9.016 25.5-19.884zM24.13 43.607c-.873-.085-2.367 2.185-4.983 3.66-3.272 1.845-7.757 2.97-8.764 2.69-1.086-.3.968-2.592 2.154-5.016.96-1.963 1.13-4.124.355-4.511C5.148 36.558 0 29.7 0 21.885 0 9.798 12.312 0 27.5 0S55 9.798 55 21.885c0 12.086-12.312 21.884-27.5 21.884-1.14 0-2.265-.055-3.37-.162z" fill-rule="evenodd"/></svg>
